X:1
T:Title
%%score { ( 1 3 ) | ( 2 4 ) }
L:1/8
M:2/4
K:C
V:1 treble nm="Grand Piano"
V:3 treble 
V:2 bass 
V:4 bass 
V:1
 z2[Q:1/4=100] E>[DF] | [EG]>[EG] [Ge][Ge] | [Ge]<[Ge] [Fd][Ec] | [Ac][Ac] [GB][FA] | %4
[M:1/4] [EG]2 | [EG]>[EG] |[M:2/4] GG dd | e<d c[DB] | [Ec][Gc] [Gd][Gd] |[M:1/4] [Ge]2 | E>[DF] | %11
[M:2/4] [EG]>[EG] [Ge][Ge] | [Af]<[Ge] [Fd][Ec] | AA AA |[M:1/4] [Ac]2 | [GB]>[FA] | %16
[M:2/4] [EG]>[EG] [Gc][Gd] | [Ge]<[Ec] [B,Fd]>[B,Fd] | c4- |[M:3/8] c3 |[M:1/4] B>c |[M:2/4] d4- | %22
 d2 z2 | c4- | c2 z2 | A>A AB | c<c c>c | d>d dd |[M:1/4] d2 | E>F |[M:2/4] G4- | G2 z2 | A4- | %33
 A2 z2 | [EG]>[EG] [Gc][Gd] | %35
 [Ge]<[Ec] [Fd]>[Q:1/4=80][Fd][Q:1/4=98][Q:1/4=97][Q:1/4=95][Q:1/4=93][Q:1/4=92][Q:1/4=90][Q:1/4=88][Q:1/4=87][Q:1/4=85][Q:1/4=83][Q:1/4=82][Q:1/4=78][Q:1/4=77] | %36
 c4- |[M:3/8] c3 |] %38
V:2
 z2 [C,C]>[C,C] | [C,C]>[C,C] [C,C][C,C] | [C,C]<[C,C] [C,C][C,C] | [F,C][F,C] [F,C][F,C] | %4
[M:1/4] [C,C]2 | [C,C]>[C,C] |[M:2/4][K:treble] [G,B,F][G,B,F] [G,B,F][G,B,F] | %7
 [G,B,F]<[G,B,F][K:bass] [G,E][G,,G,] | [C,G,][E,C] [G,B,][G,B,] |[M:1/4] [C,C]2 | [C,C]>[C,C] | %11
[M:2/4] [C,C]>[C,C] [C,C][C,C] | [C,C]<[C,C] [C,C][C,C] | [F,CF][F,CF] [F,CF][F,CF] | %14
[M:1/4] [F,C]2 | [F,C]>[F,C] |[M:2/4] [C,C]>[C,C] [E,C][G,B,] | [C,C]<[C,C] G,,>G,, | z G, A,A, | %19
[M:3/8] G,3 |[M:1/4][K:treble] D>E |[M:2/4] F4- | F2 z2 | E4- | E2 z2 | %25
 [F,CF]>[F,CF] [F,CF][G,CF] | [A,CE]<[A,CE] [G,CE]>[G,CE] | [G,B,G]>[G,B,G] [G,B,G][G,B,G] | %28
[M:1/4] [G,B,G]2 | C>D |[M:2/4][K:bass] E4- | E2[K:treble] z2 | F4- | F2 z2 | %34
 [C,C]>[C,C] [E,C][G,B,] | [C,C]<[C,C] [G,,B,]>[G,,B,] | .G,2 z2 |[M:3/8] z3 |] %38
V:3
 x4 | x4 | x4 | x4 |[M:1/4] x2 | x2 |[M:2/4] x4 | x4 | x4 |[M:1/4] x2 | x2 |[M:2/4] x4 | x4 | x4 | %14
[M:1/4] x2 | x2 |[M:2/4] x4 | x4 | [CE]E FF |[M:3/8] E3 |[M:1/4] x2 |[M:2/4] z B, B,>B, | B,2 c>B | %23
 z G, G,>G, | G,2 [CGc]>[CGB] | x4 | x4 | x4 |[M:1/4] x2 | x2 |[M:2/4] z C C>C | C2 c>B | z C C>C | %33
 C2 [CGB]>[CFA] | x4 | x4 | EE FF |[M:3/8] E3 |] %38
V:4
 x4 | x4 | x4 | x4 |[M:1/4] x2 | x2 |[M:2/4][K:treble] x4 | x2[K:bass] x2 | x4 |[M:1/4] x2 | x2 | %11
[M:2/4] x4 | x4 | x4 |[M:1/4] x2 | x2 |[M:2/4] x4 | x4 | C,4- |[M:3/8] C,3 |[M:1/4][K:treble] x2 | %21
[M:2/4] z G, G,>G, | G,2 E>D | z C, C,>C, | C,2 E,>E, | x4 | x4 | x4 |[M:1/4] x2 | x2 | %30
[M:2/4][K:bass] z C, C,>C, | C,2[K:treble] E>G | z F, F,>F, | F,2 F,>F, | x4 | x4 | %36
 C,-[C,-G,] [C,-A,][C,-^G,] |[M:3/8] [C,G,]3 |] %38

